X: 296
T: the Peeler and the Goat   #2
R: jig
%S: s:2 b:10(6+4)
B: O'Neill's 1850 #296
O: F.O'Neill
Z: 1997 by John Chambers <jc@trillian.mit.edu>
N: Compacted via repeats and multiple endings [JC]
N: Compacted by using labels and play order [JC]
P: Play A1A2 BA2
Q: "Lively"
M: 6/8
L: 1/8
K: Am
(A/B/) "^A"|: (c2A) BAG | (A2B) (c2d) |[1 efe (d2c) | (B2G) GAB :|[2 e^fg =fed | e2A "^fine"A2 |]
"^B"[| ^f | (g2e) dcd | e^f^g (a2b) | age (d2g) | (B2G) GA"^-A2"B |]
